X:422
L:1/8
Q:1/4=160
M:9/8
K:F
 G2 B | A A2 A2 D A2 c | B B2 B2 A G2 A | BGB AG^F G2 B | A A2 A2 D A2 c | d3 d2 B G2 A | 
 BGB AG^F G3- | G6 :: d3 | c2 A B2 c d2 e | fdf ece d3 | c2 A B2 d cde | d2 c B B2 A3 | 
 a3 g2 f d2 f | egf d3 c2 A | BGB AG^F G3- | G6 :|

